client/filepreviewer/pdfjs/web/images/secondaryToolbarButton-scrollWrapped.svg

<svg width="16" height="16" viewBox="0 0 16 16" fill="none" xmlns="http://www.w3.org/2000/svg">
<path d="M2.5 1C2.5 1.27579 2.72421 1.5 3 1.5H5C5.27579 1.5 5.5 1.27579 5.5 1H7C7 2.10421 6.10421 3 5 3H3C1.89579 3 1 2.10421 1 1H2.5ZM2.5 6C2.5 5.72421 2.72421 5.5 3 5.5H5C5.27579 5.5 5.5 5.72421 5.5 6V10C5.5 10.2758 5.27579 10.5 5 10.5H3C2.72421 10.5 2.5 10.2758 2.5 10V6ZM3 4C1.89579 4 1 4.89579 1 6V10C1 11.1042 1.89579 12 3 12H5C6.10421 12 7 11.1042 7 10V6C7 4.89579 6.10421 4 5 4H3ZM10 6C10 5.72421 10.2242 5.5 10.5 5.5H12.5C12.7758 5.5 13 5.72421 13 6V10C13 10.2758 12.7758 10.5 12.5 10.5H10.5C10.2242 10.5 10 10.2758 10 10V6ZM10.5 4C9.39579 4 8.5 4.89579 8.5 6V10C8.5 11.1042 9.39579 12 10.5 12H12.5C13.6042 12 14.5 11.1042 14.5 10V6C14.5 4.89579 13.6042 4 12.5 4H10.5ZM3 14.5C2.72421 14.5 2.5 14.7242 2.5 15H1C1 13.8958 1.89579 13 3 13H5C6.10421 13 7 13.8958 7 15H5.5C5.5 14.7242 5.27579 14.5 5 14.5H3ZM10 15C10 14.7242 10.2242 14.5 10.5 14.5H12.5C12.7758 14.5 13 14.7242 13 15H14.5C14.5 13.8958 13.6042 13 12.5 13H10.5C9.39579 13 8.5 13.8958 8.5 15H10ZM10.5 1.5C10.2242 1.5 10 1.27579 10 1H8.5C8.5 2.10421 9.39579 3 10.5 3H12.5C13.6042 3 14.5 2.10421 14.5 1H13C13 1.27579 12.7758 1.5 12.5 1.5H10.5Z" fill="black"/>
</svg>

<svg xmlns="http://www.w3.org/2000/svg" width="16" height="16" fill="none"><path fill="#000" d="M2.5 1a.5.5 0 0 0 .5.5h2a.5.5 0 0 0 .5-.5H7a2 2 0 0 1-2 2H3a2 2 0 0 1-2-2zm0 5a.5.5 0 0 1 .5-.5h2a.5.5 0 0 1 .5.5v4a.5.5 0 0 1-.5.5H3a.5.5 0 0 1-.5-.5zM3 4a2 2 0 0 0-2 2v4a2 2 0 0 0 2 2h2a2 2 0 0 0 2-2V6a2 2 0 0 0-2-2zm7 2a.5.5 0 0 1 .5-.5h2a.5.5 0 0 1 .5.5v4a.5.5 0 0 1-.5.5h-2a.5.5 0 0 1-.5-.5zm.5-2a2 2 0 0 0-2 2v4a2 2 0 0 0 2 2h2a2 2 0 0 0 2-2V6a2 2 0 0 0-2-2zM3 14.5a.5.5 0 0 0-.5.5H1a2 2 0 0 1 2-2h2a2 2 0 0 1 2 2H5.5a.5.5 0 0 0-.5-.5zm7 .5a.5.5 0 0 1 .5-.5h2a.5.5 0 0 1 .5.5h1.5a2 2 0 0 0-2-2h-2a2 2 0 0 0-2 2zm.5-13.5A.5.5 0 0 1 10 1H8.5a2 2 0 0 0 2 2h2a2 2 0 0 0 2-2H13a.5.5 0 0 1-.5.5z"/></svg>
